X:525
T:Nellie the Elephant (32-bar)
C:Ralph Butler & Peter Hart, 1956
S:Colin Hume's website,  colinhume.com  - chords can also be printed below the stave.
Q:3/8=120
M:6/8
L:1/8
K:G
P:A
|: "G"Bcd BAG | "G"B2B d2d | "C"e2e gfe | "G"d3 B3 |\
"Am"c2c "D7"AAA | "Bm"ddd "Em"B3 |1 "D"f3 "A"e3 | "D"ded "D7"cBA :|2 "Am"e3 "D7"F3 | "G"G3- "G7"G2G ||
P:B
"C"Gce g2f | "G"g3 d3 | "Am"e3 "D7"d2c | "G"B3-B2B |\
"A7"A2B ^cBA | "D"d2e ffg | "A7"a2g f2e | "D"ded "D7"cBA |
"G"Bcd BAG | "G"B2B d2d | "C"e2e gfe | "G"d3 B3 |\
"Am"c2c "D7"AAA | "Bm"ddd "Em"B3 | "Am"e3 "D7"F3 | "G"G3 z3 |]

